img/icon-all-stars.svg

<svg width="25" height="25" viewBox="0 0 25 25" fill="none" xmlns="http://www.w3.org/2000/svg">
<path d="M12.7847 13.8299C12.7849 13.829 12.7852 13.8282 12.7854 13.8273H12.7881C12.7884 13.8282 12.7887 13.829 12.7889 13.8298C12.7883 13.8303 12.7876 13.8309 12.7868 13.8314C12.7861 13.8309 12.7854 13.8304 12.7847 13.8299ZM24.7838 10.3838C24.7168 9.41568 23.8775 8.68522 22.9094 8.7523L16.1428 9.22118L14.4958 2.63314C14.3425 2.0255 13.8679 1.51725 13.2173 1.35462C12.2759 1.11929 11.3219 1.69173 11.0865 2.63314L9.44144 9.21342L2.6669 8.74404C2.04154 8.7021 1.41157 8.99642 1.05589 9.56484C0.541154 10.3875 0.790721 11.4717 1.61332 11.9865L7.36316 15.5845L4.82334 21.8824C4.59022 22.4642 4.67546 23.1542 5.10615 23.6682C5.72947 24.412 6.83778 24.5097 7.58153 23.8864L12.7802 19.5298L17.985 23.8915C18.4662 24.293 19.1489 24.4252 19.7708 24.1743C20.6708 23.8114 21.1062 22.7875 20.7433 21.8875L18.2064 15.597L23.9629 11.9948C24.4935 11.6612 24.8302 11.0528 24.7838 10.3838Z" fill="white"/>
</svg>

<svg width="25" height="25" fill="none" xmlns="http://www.w3.org/2000/svg"><path d="M12.785 13.83v-.003h.003v.003l-.001.001-.002-.001zm11.999-3.446a1.757 1.757 0 0 0-1.875-1.632l-6.766.47-1.647-6.589a1.757 1.757 0 0 0-3.41 0l-1.645 6.58-6.774-.469a1.757 1.757 0 0 0-1.054 3.242l5.75 3.598-2.54 6.298a1.757 1.757 0 0 0 2.758 2.004l5.2-4.356 5.204 4.361a1.757 1.757 0 0 0 2.758-2.004l-2.537-6.29 5.757-3.602a1.76 1.76 0 0 0 .82-1.611z" fill="#fff"/></svg>
